actions/22x22-dark/tab-new.svg

<svg viewBox="0 0 22 22" xmlns="http://www.w3.org/2000/svg"><path d="m5.6660156 5.5546875c-.8585156.9336711-1.7421934 2.4306317-2.6660156 3.5566406v.3554688.1777343 1.2441408 6.755859c0 .196978.158491.355469.3554688.355469h15.2890622c.196978 0 .355469-.158491.355469-.355469v-8.1777341-.3554688c-.923822-1.1260089-1.8075-2.6229695-2.666016-3.5566406h-1.779296-.419922-1.357422c-.578916.6295911-1.170757 1.5140651-1.777344 2.3691406-.606587-.8550755-1.1984281-1.7395495-1.7773438-2.3691406h-1.3574218-.4199219zm9.3339844 6.4453125h1v2h2v1h-2v2h-1v-2h-2v-1h2z" fill="#f2f2f2"/></svg>

<?xml version="1.0" encoding="UTF-8" standalone="no"?>
<svg
   xmlns:dc="http://purl.org/dc/elements/1.1/"
   xmlns:cc="http://creativecommons.org/ns#"
   xmlns:rdf="http://www.w3.org/1999/02/22-rdf-syntax-ns#"
   xmlns:svg="http://www.w3.org/2000/svg"
   xmlns="http://www.w3.org/2000/svg"
   xmlns:sodipodi="http://sodipodi.sourceforge.net/DTD/sodipodi-0.dtd"
   xmlns:inkscape="http://www.inkscape.org/namespaces/inkscape"
   viewBox="0 0 22 22"
   id="svg2"
   version="1.1"
   inkscape:version="0.91 r13725"
   sodipodi:docname="tab-new.svg">
  <metadata
     id="metadata10">
    <rdf:RDF>
      <cc:Work
         rdf:about="">
        <dc:format>image/svg+xml</dc:format>
        <dc:type
           rdf:resource="http://purl.org/dc/dcmitype/StillImage" />
      </cc:Work>
    </rdf:RDF>
  </metadata>
  <sodipodi:namedview
     pagecolor="#ffffff"
     bordercolor="#666666"
     borderopacity="1"
     objecttolerance="10"
     gridtolerance="10"
     guidetolerance="10"
     inkscape:pageopacity="0"
     inkscape:pageshadow="2"
     inkscape:window-width="640"
     inkscape:window-height="480"
     id="namedview8"
     showgrid="false"
     inkscape:zoom="28.954545"
     inkscape:cx="4.8524333"
     inkscape:cy="11"
     inkscape:current-layer="svg2" />
  <defs
     id="defs3051">
    <style
       type="text/css"
       id="current-color-scheme">
      .ColorScheme-Text {
        color:#f2f2f2
      }
      </style>
  </defs>
  <path
     style="color:#f2f2f2;fill:currentColor;fill-opacity:1;stroke:none"
     d="M 5.6660156 5.5546875 C 4.8075 6.4883586 3.9238222 7.9853192 3 9.1113281 L 3 9.4667969 L 3 9.6445312 L 3 10.888672 L 3 17.644531 C 3 17.841509 3.158491 18 3.3554688 18 L 18.644531 18 C 18.841509 18 19 17.841509 19 17.644531 L 19 9.4667969 L 19 9.1113281 C 18.076178 7.9853192 17.1925 6.4883586 16.333984 5.5546875 L 14.554688 5.5546875 L 14.134766 5.5546875 L 12.777344 5.5546875 C 12.198428 6.1842786 11.606587 7.0687526 11 7.9238281 C 10.393413 7.0687526 9.8015719 6.1842786 9.2226562 5.5546875 L 7.8652344 5.5546875 L 7.4453125 5.5546875 L 5.6660156 5.5546875 z M 15 12 L 16 12 L 16 14 L 18 14 L 18 15 L 16 15 L 16 17 L 15 17 L 15 15 L 13 15 L 13 14 L 15 14 L 15 12 z "
     id="path6" />
</svg>
